brandFactory_export/2.Regular/Familia_2Regular.svg

<?xml version="1.0" encoding="UTF-8"?>
<svg width="24px" height="24px" viewBox="0 0 24 24" version="1.1" xmlns="http://www.w3.org/2000/svg" xmlns:xlink="http://www.w3.org/1999/xlink">
    <title>2.Regular/Familia_2Regular</title>
    <g id="Symbols" stroke="none" stroke-width="1" fill="none" fill-rule="evenodd">
        <g id="2.Regular/Familia_2Regular" fill="#5CB615" fill-rule="nonzero">
            <path d="M10.5512605,1.67731092 C10.4067227,1.79495798 10.4638655,2.09411765 10.4907563,2.21848739 C10.594958,2.65210084 10.8033613,3.10588235 11.1058824,3.57983193 C11.3613445,3.9697479 11.5563025,4.20840336 11.9058824,4.56470588 C11.9260504,4.58823529 11.9932773,4.65882353 12.0571429,4.7092437 C12.1210084,4.65546218 12.1848739,4.58823529 12.2084034,4.56470588 C12.5613445,4.20504202 12.7529412,3.96638655 13.0016807,3.58319328 C13.307563,3.1092437 13.512605,2.65546218 13.6201681,2.22184874 C13.6470588,2.09747899 13.7042017,1.79831933 13.5596639,1.68067227 C13.4991597,1.62689076 13.394958,1.59327731 13.2840336,1.58655462 C13.1260504,1.57310924 12.9613445,1.62016807 12.7932773,1.71092437 C12.6957983,1.76470588 12.6016807,1.81848739 12.497479,1.8789916 L12.3092437,1.98991597 L11.8521008,2 L11.6369748,1.89243697 C11.5058824,1.81512605 11.4117647,1.76134454 11.3176471,1.71092437 C11.1630252,1.6302521 11.0117647,1.58655462 10.8638655,1.58655462 L10.8268908,1.58655462 C10.7159664,1.58991597 10.6151261,1.62352941 10.5512605,1.67731092 L10.5512605,1.67731092 Z M9.76470588,4.43697479 C9.36134454,3.81512605 9.08235294,3.19327731 8.93445378,2.58487395 C8.72941176,1.73109244 8.93781513,0.957983193 9.50588235,0.47394958 C9.83865546,0.194957983 10.2789916,0.0268907563 10.7462185,0.00336134454 C11.1764706,-0.0201680672 11.6403361,0.0840336134 12.0537815,0.305882353 C12.4672269,0.0840336134 12.9310924,-0.0201680672 13.3680672,0.00336134454 C13.8319328,0.0268907563 14.2722689,0.194957983 14.605042,0.47394958 C15.1764706,0.957983193 15.3815126,1.73109244 15.1764706,2.58487395 C15.0285714,3.19327731 14.7495798,3.81512605 14.3495798,4.43697479 C14.0403361,4.91092437 13.7848739,5.2302521 13.3647059,5.6605042 C13.3008403,5.72436975 13.1226891,5.90252101 12.9680672,6.01008403 C12.7831933,6.14117647 12.5714286,6.23193277 12.3563025,6.2789916 L12.0605042,6.31260504 L11.7378151,6.27563025 C11.5394958,6.23193277 11.3277311,6.14117647 11.1462185,6.01008403 C10.9915966,5.89915966 10.810084,5.7210084 10.7596639,5.67058824 C10.3394958,5.24033613 10.0773109,4.91764706 9.76470588,4.43697479 L9.76470588,4.43697479 Z M4.4907563,8.07394958 C4.20168067,8.35294118 4.05714286,8.83361345 4.05714286,9.50588235 C4.05714286,10.1747899 4.20168067,10.6588235 4.4907563,10.9344538 C4.7697479,11.2 5.24705882,11.3378151 5.90252101,11.3378151 C6.55798319,11.3378151 7.03529412,11.2 7.31764706,10.9310924 C7.60672269,10.6554622 7.75462185,10.1747899 7.75462185,9.50588235 C7.75462185,8.83361345 7.60672269,8.35294118 7.31428571,8.07394958 C7.02857143,7.80168067 6.55462185,7.66386555 5.89915966,7.66386555 C5.25042017,7.66386555 4.77310924,7.80168067 4.4907563,8.07394958 L4.4907563,8.07394958 Z M5.90252101,12.8067227 C4.85042017,12.8067227 4.0302521,12.5344538 3.46890756,11.989916 C2.88067227,11.4252101 2.58151261,10.5882353 2.58151261,9.50588235 C2.58151261,8.42016807 2.87731092,7.58319328 3.46554622,7.01848739 C4.0302521,6.47394958 4.85042017,6.19831933 5.90252101,6.19831933 C6.9512605,6.19831933 7.77142857,6.47394958 8.3394958,7.01848739 C8.93109244,7.58319328 9.2302521,8.42016807 9.2302521,9.50588235 C9.2302521,10.5882353 8.93109244,11.4252101 8.3394958,11.989916 C7.77142857,12.5310924 6.9512605,12.8067227 5.90252101,12.8067227 L5.90252101,12.8067227 Z M16.302521,8.07394958 C16.0134454,8.35294118 15.8689076,8.83361345 15.8689076,9.50588235 C15.8689076,10.1747899 16.0134454,10.6588235 16.302521,10.9344538 C16.5815126,11.2 17.0588235,11.3378151 17.7142857,11.3378151 C18.3697479,11.3378151 18.8470588,11.2 19.1294118,10.9310924 C19.4184874,10.6554622 19.5663866,10.1747899 19.5663866,9.50588235 C19.5663866,8.83361345 19.4184874,8.35294118 19.1260504,8.07394958 C18.8403361,7.80168067 18.3663866,7.66386555 17.7109244,7.66386555 C17.0621849,7.66386555 16.5848739,7.80168067 16.302521,8.07394958 L16.302521,8.07394958 Z M15.2773109,11.989916 C14.6890756,11.4252101 14.389916,10.5882353 14.389916,9.50588235 C14.389916,8.42016807 14.6857143,7.58319328 15.2739496,7.01848739 C15.8386555,6.47394958 16.6588235,6.19831933 17.7109244,6.19831933 C18.7596639,6.19831933 19.5798319,6.47394958 20.1478992,7.01848739 C20.7394958,7.58319328 21.0386555,8.42016807 21.0386555,9.50588235 C21.0386555,10.5882353 20.7394958,11.4252101 20.1478992,11.989916 C19.5798319,12.5310924 18.7596639,12.8067227 17.7109244,12.8067227 C16.6621849,12.8067227 15.8420168,12.5310924 15.2773109,11.989916 L15.2773109,11.989916 Z M12.4067227,12.9142857 C12.4672269,12.8537815 12.5344538,12.6756303 12.5344538,12.3495798 C12.5344538,12.0201681 12.4672269,11.8386555 12.4033613,11.7781513 C12.3394958,11.7142857 12.1546218,11.6504202 11.8319328,11.6504202 C11.5092437,11.6504202 11.3277311,11.7142857 11.2672269,11.7747899 C11.2033613,11.8352941 11.1361345,12.0168067 11.1361345,12.3462185 C11.1361345,12.6756303 11.2,12.8537815 11.2638655,12.9142857 C11.3243697,12.9747899 11.5092437,13.0386555 11.8319328,13.0386555 C12.1579832,13.0386555 12.3428571,12.9747899 12.4067227,12.9142857 L12.4067227,12.9142857 Z M11.8319328,10.1848739 C12.5176471,10.1848739 13.0554622,10.3663866 13.4285714,10.7226891 C13.8151261,11.092437 14.0134454,11.6403361 14.0134454,12.3495798 C14.0134454,13.0588235 13.8151261,13.6033613 13.4285714,13.9731092 C13.0554622,14.3260504 12.5176471,14.507563 11.8319328,14.507563 C11.1462185,14.507563 10.6117647,14.3260504 10.2386555,13.9731092 C9.85210084,13.6033613 9.6605042,13.0588235 9.6605042,12.3495798 C9.6605042,11.6369748 9.85546218,11.092437 10.2386555,10.7226891 C10.6117647,10.3663866 11.1462185,10.1848739 11.8319328,10.1848739 Z M22.1478992,22.1579832 L22.1478992,18.2386555 C22.1478992,17.7747899 22.0504202,17.1260504 21.6,16.6621849 C21.102521,16.1445378 20.312605,16.0336134 19.7411765,16.0336134 L15.687395,16.0336134 C15.3915966,16.0336134 15.0386555,16.0672269 14.6991597,16.1680672 C14.8336134,16.2554622 14.9613445,16.3563025 15.0756303,16.4739496 C15.4857143,16.897479 15.7008403,17.4823529 15.7008403,18.1714286 L15.7008403,22.1579832 L22.1478992,22.1579832 L22.1478992,22.1579832 Z M14.2218487,22.1579832 L14.2218487,18.1680672 C14.2218487,17.9596639 14.1848739,17.6705882 14.0067227,17.4890756 C13.8957983,17.3714286 13.6941176,17.3109244 13.4621849,17.2739496 C13.3613445,17.2571429 13.2705882,17.2336134 13.1563025,17.2336134 L10.5042017,17.2336134 C10.3731092,17.2336134 10.2689076,17.2571429 10.1579832,17.2773109 C9.94285714,17.3176471 9.76134454,17.3747899 9.65714286,17.4857143 C9.48235294,17.6672269 9.44537815,17.9563025 9.44537815,18.1680672 L9.44537815,22.1747899 L14.2184874,22.1747899 L14.2184874,22.1579832 L14.2218487,22.1579832 Z M8.59495798,16.4739496 C8.70252101,16.3630252 8.82352941,16.2689076 8.95462185,16.1815126 C8.60168067,16.0705882 8.23529412,16.0336134 7.92941176,16.0336134 L3.87563025,16.0336134 C3.30420168,16.0336134 2.51764706,16.1445378 2.02016807,16.6588235 C1.57310924,17.1226891 1.4789916,17.7747899 1.4789916,18.2386555 L1.4789916,22.1579832 L7.97647059,22.1579832 L7.97647059,18.1680672 C7.97310924,17.4823529 8.18487395,16.8941176 8.59495798,16.4739496 L8.59495798,16.4739496 Z M15.5092437,23.6235294 L0.379831933,23.6235294 C0.171428571,23.6235294 0.00336134454,23.4554622 0.00336134454,23.2470588 L0.00336134454,18.2386555 C0.00336134454,17.1865546 0.332773109,16.292437 0.954621849,15.6470588 C1.63361345,14.9411765 2.64537815,14.5680672 3.87563025,14.5680672 L7.92941176,14.5680672 C9.16302521,14.5680672 10.1747899,14.9411765 10.8537815,15.6470588 C10.8907563,15.6840336 10.9176471,15.7310924 10.9512605,15.7714286 L12.6689076,15.7714286 C12.702521,15.7310924 12.7294118,15.6840336 12.7630252,15.6470588 C13.4420168,14.9411765 14.4537815,14.5680672 15.6840336,14.5680672 L19.7378151,14.5680672 C20.9714286,14.5680672 21.9831933,14.9411765 22.6621849,15.6470588 C23.2907563,16.2957983 23.6235294,17.189916 23.6235294,18.2420168 L23.6235294,23.2504202 C23.6235294,23.4588235 23.4521008,23.6268908 23.2436975,23.6268908 L15.5092437,23.6268908 L15.5092437,23.6235294 Z" id="Familia_2Regular"></path>
        </g>
    </g>
</svg>

<svg width="24" height="24" viewBox="0 0 24 24" xmlns="http://www.w3.org/2000/svg"><path d="M10.551 1.677c-.144.118-.087.417-.06.541.104.434.312.888.615 1.362.255.39.45.628.8.985.02.023.087.094.151.144a5.553 5.553 0 00.945-1.126c.306-.474.51-.928.618-1.361.027-.125.084-.424-.06-.541a.473.473 0 00-.276-.094.883.883 0 00-.49.124 15.28 15.28 0 00-.297.168l-.188.11-.457.011-.215-.108a8.733 8.733 0 00-.32-.181.983.983 0 00-.453-.124h-.037a.458.458 0 00-.276.09zm-.786 2.76c-.404-.622-.683-1.244-.83-1.852-.206-.854.003-1.627.57-2.111a2.1 2.1 0 011.241-.47c.43-.024.894.08 1.308.302a2.526 2.526 0 011.314-.303c.464.024.904.192 1.237.47.571.485.777 1.258.571 2.112-.147.608-.426 1.23-.826 1.852-.31.474-.565.793-.985 1.224-.064.063-.242.242-.397.35a1.687 1.687 0 01-.612.268l-.295.034-.323-.037a1.634 1.634 0 01-.592-.266 3.679 3.679 0 01-.386-.34 7.277 7.277 0 01-.995-1.233zM4.49 8.074c-.29.279-.434.76-.434 1.432 0 .669.145 1.153.434 1.428.279.266.756.404 1.412.404.655 0 1.132-.138 1.415-.407.289-.276.437-.756.437-1.425 0-.672-.148-1.153-.44-1.432-.286-.272-.76-.41-1.416-.41-.649 0-1.126.138-1.408.41zm1.412 4.733c-1.053 0-1.873-.273-2.434-.817-.588-.565-.887-1.402-.887-2.484 0-1.086.295-1.923.884-2.488.564-.544 1.384-.82 2.437-.82 1.048 0 1.868.276 2.436.82.592.565.891 1.402.891 2.488 0 1.082-.299 1.92-.89 2.484-.569.541-1.389.817-2.437.817zm10.4-4.733c-.29.279-.434.76-.434 1.432 0 .669.144 1.153.434 1.428.279.266.756.404 1.411.404.656 0 1.133-.138 1.415-.407.29-.276.437-.756.437-1.425 0-.672-.148-1.153-.44-1.432-.286-.272-.76-.41-1.415-.41-.649 0-1.126.138-1.408.41zm-1.026 3.916c-.588-.565-.887-1.402-.887-2.484 0-1.086.296-1.923.884-2.488.565-.544 1.385-.82 2.437-.82 1.049 0 1.869.276 2.437.82.591.565.89 1.402.89 2.488 0 1.082-.299 1.92-.89 2.484-.568.541-1.388.817-2.437.817s-1.869-.276-2.434-.817zm-2.87.924c.06-.06.127-.238.127-.564 0-.33-.067-.511-.13-.572-.065-.064-.25-.128-.572-.128-.323 0-.504.064-.565.125-.064.06-.13.242-.13.571 0 .33.063.508.127.568.06.06.245.125.568.125.326 0 .51-.064.575-.125zm-.575-2.73c.686 0 1.223.182 1.597.539.386.37.584.917.584 1.627 0 .709-.198 1.253-.584 1.623-.374.353-.911.535-1.597.535-.686 0-1.22-.182-1.593-.535-.387-.37-.578-.914-.578-1.623 0-.713.194-1.258.578-1.627.373-.357.907-.538 1.593-.538zm10.316 11.974v-3.92c0-.463-.098-1.112-.548-1.576-.497-.517-1.287-.628-1.859-.628h-4.054c-.295 0-.648.033-.988.134.135.087.262.188.377.306.41.423.625 1.008.625 1.697v3.987h6.447zm-7.926 0v-3.99c0-.208-.037-.497-.215-.679-.111-.118-.313-.178-.545-.215-.1-.017-.191-.04-.306-.04h-2.652c-.13 0-.235.023-.346.043-.215.04-.397.098-.5.209-.176.181-.213.47-.213.682v4.007h4.773v-.017h.004zm-5.627-5.684a2.17 2.17 0 01.36-.292 3.482 3.482 0 00-1.026-.148H3.876c-.572 0-1.358.11-1.856.625-.447.464-.541 1.116-.541 1.58v3.919h6.497v-3.99c-.003-.686.209-1.274.619-1.694zm6.914 7.15H.38a.376.376 0 01-.376-.377V18.24c0-1.052.33-1.947.952-2.592.679-.706 1.69-1.079 2.92-1.079H7.93c1.234 0 2.246.373 2.925 1.08.037.036.064.083.097.123h1.718c.034-.04.06-.087.094-.124.679-.706 1.69-1.079 2.921-1.079h4.054c1.233 0 2.245.373 2.924 1.08.629.648.962 1.542.962 2.594v5.008a.379.379 0 01-.38.377h-7.735v-.003z" fill="#5CB615" fill-rule="nonzero"/></svg>
